images/dist/getStart/Vector.svg

<svg width="40" height="36" viewBox="0 0 40 36" fill="none" xmlns="http://www.w3.org/2000/svg">
<path d="M36.25 8H30V4.25C30 2.17891 28.3211 0.5 26.25 0.5H13.75C11.6789 0.5 10 2.17891 10 4.25V8H3.75C1.67891 8 0 9.67891 0 11.75V31.75C0 33.8211 1.67891 35.5 3.75 35.5H36.25C38.3211 35.5 40 33.8211 40 31.75V11.75C40 9.67891 38.3211 8 36.25 8ZM13.75 4.25H26.25V8H13.75V4.25ZM4.21875 11.75H35.7812C36.0398 11.75 36.25 11.9602 36.25 12.2188V18H3.75V12.2188C3.75 11.9602 3.96016 11.75 4.21875 11.75ZM35.7812 31.75H4.21875C3.96016 31.75 3.75 31.5398 3.75 31.2812V21.75H15V23.625C15 24.6602 15.8398 25.5 16.875 25.5H23.125C24.1602 25.5 25 24.6602 25 23.625V21.75H36.25V31.2812C36.25 31.5398 36.0398 31.75 35.7812 31.75Z" fill="url(#paint0_linear)"/>
<defs>
<linearGradient id="paint0_linear" x1="-7.73976e-10" y1="17.0789" x2="40.0156" y2="17.5278" gradientUnits="userSpaceOnUse">
<stop stop-color="#4A5DEA"/>
<stop offset="1" stop-color="#914AFF"/>
</linearGradient>
</defs>
</svg>

<svg width="40" height="36" fill="none" xmlns="http://www.w3.org/2000/svg"><path d="M36.25 8H30V4.25A3.75 3.75 0 0 0 26.25.5h-12.5A3.75 3.75 0 0 0 10 4.25V8H3.75A3.75 3.75 0 0 0 0 11.75v20a3.75 3.75 0 0 0 3.75 3.75h32.5A3.75 3.75 0 0 0 40 31.75v-20A3.75 3.75 0 0 0 36.25 8zm-22.5-3.75h12.5V8h-12.5V4.25zm-9.531 7.5H35.78a.47.47 0 0 1 .469.469V18H3.75v-5.781a.47.47 0 0 1 .469-.469zm31.562 20H4.22a.47.47 0 0 1-.469-.469V21.75H15v1.875c0 1.035.84 1.875 1.875 1.875h6.25c1.035 0 1.875-.84 1.875-1.875V21.75h11.25v9.531a.47.47 0 0 1-.469.469z" fill="url(#a)"/><defs><linearGradient id="a" x1="0" y1="17.079" x2="40.016" y2="17.528" gradientUnits="userSpaceOnUse"><stop stop-color="#4A5DEA"/><stop offset="1" stop-color="#914AFF"/></linearGradient></defs></svg>
